svg/u1fa7b.svg

<svg viewBox="0 0 128 128" xmlns="http://www.w3.org/2000/svg" xmlns:xlink="http://www.w3.org/1999/xlink">
  <path d="M116.62,124.26H11.32c-4.15,0-7.52-3.37-7.52-7.52V11.44c0-4.15,3.37-7.52,7.52-7.52h105.3 c4.15,0,7.52,3.37,7.52,7.52v105.3C124.15,120.89,120.78,124.26,116.62,124.26z" fill="#95C7EC"/>
  <polygon fill="#10203D" points="10.43,117.67 10.69,9.27 118.69,8.74 118.3,117.54 "/>
  <path d="M49.7,22.01c-1.08,0.95-8.23,1.19-14.86,0.53c-6.63-0.66-13.8-0.13-17.12,1.72s-7.16,5.57-7.16,5.57 l-0.4,52.67l6.76-9.75c0,0-0.34,10.57,1.47,25.27c1.37,11.12,4.64,19.5,4.64,19.5h84.65c0,0,3.35-14.61,3.98-22.02 c0.9-10.65,0.13-20.3,0.13-20.3l6.5,7.7l0.27-52.14c0,0-3.4-4.36-10.34-6.38c-8.49-2.47-19.6-2.16-24.42-2.25 c-1.61-0.03-3.85,0.13-4.38-0.66s-0.4-12.21-0.4-12.21L50.36,9.01C50.36,9.01,50.76,21.08,49.7,22.01z" fill="#2865AB"/>
  <radialGradient id="SVGID_1_" cx="65.4524" cy="68.3516" gradientTransform="matrix(1 -9.433542e-03 6.862747e-03 0.7275 -0.4662 19.2466)" gradientUnits="userSpaceOnUse" r="75.1426">
    <stop offset="0.5911" stop-color="#7AC4D9"/>
    <stop offset="0.7747" stop-color="#4FA4C6"/>
    <stop offset="0.8506" stop-color="#3C95BD"/>
    <stop offset="1" stop-color="#327DB5"/>
  </radialGradient>
  <path d="M55.28,24.85c0,0,0.93-4.01,1.08-8.49c0.15-4.48,0-7.41,0-7.41L72.72,8.8 c0,0-0.46,4.79-0.46,7.25s0.31,7.25,0.93,8.18s4.7,0.26,8.38,2.01c4.21,2.01,5.46,6.03,5.46,6.03l18.42-0.64l6.89,3.13 c0,0,2.32,2.01,2.93,4.79s0.86,6.99,0.86,6.99l2.74,3.93l-0.62,16.36c0,0-7.1-8.18-8.34-9.42c-1.23-1.23-2.62-4.32-4.17-1.23 c-1.54,3.09,2.93,6.79,2.62,20.84c-0.31,14.05-2.01,24.08-6.17,23.15c-4.17-0.93-1.54-7.1-2.16-15.44s-2.16-20.37-7.56-31.95 S76.27,37.2,73.8,37.82c-2.47,0.62-1.54,18.52-1.23,25.01c0.31,6.48,2.93,14.97,7.1,20.84c4.17,5.87,9.42,6.95,10.96,13.12 s-0.15,9.11-0.15,9.11s5.71,0.15,8.49,2.93s4.79,8.95,4.79,8.95H25.8c0,0,0.31-8.8,7.56-13.74s13.12-4.17,13.12-4.17l4.17-5.4 l5.4-18.37c0,0,0.31-17.13,0.31-23s0.31-12.66-0.15-13.74c-0.46-1.08-5.4-2.78-5.4-2.78s-10.03,4.48-14.51,14.2 s-6.02,21.76-6.64,33.03c-0.62,11.27,0.77,17.75-2.16,17.29s-7.56-9.72-7.41-26.09c0.15-16.36,3.4-20.68,1.54-21.61 c-1.85-0.93-4.09,2.44-7.41,6.64c-2.32,2.93-3.86,4.48-3.86,4.48V47.23c0,0,2.62-2.32,2.78-4.48s0.31-6.64,4.79-9.11 s23.15-1.7,23.15-1.7s1.7-3.4,6.33-5.71S55.28,24.85,55.28,24.85z" fill="url(#SVGID_1_)"/>
  <path d="M58.2,9c0,0-0.24,4.33,0.77,4.9c1.01,0.58,2.74,0.19,5.77,0.19c3.03,0,4.23,0.43,5.14-0.24 c0.91-0.67,0.34-5.24,0.34-5.24L58.2,9z" fill="#FCFDFD"/>
  <path d="M9.56,8.25l-0.19,110.6L119.23,119l0.4-111.19L9.56,8.25z M11.36,116.88L11.22,10.2l106.14-0.53 l0.13,106.94L11.36,116.88z" fill="#004CA5"/>
  <path d="M114.8,6.94c-0.59,1.02-0.42,4.76,0.34,5.27s4.5,0.08,5.1-0.42c0.59-0.51,0.25-4.59-0.42-5.18 C119.14,6.01,115.23,6.21,114.8,6.94z" fill="#DAEBF5"/>
  <path d="M7.96,7.62c-1.15,1.15-0.68,4.59,0.08,5.18c0.76,0.59,4.42,0.68,5.27-0.08 c0.85-0.76,0.76-4.59-0.25-5.44S8.98,6.6,7.96,7.62z" fill="#DAEBF5"/>
  <path d="M7.79,114.72c-0.59,0.71-0.59,4.59,0.17,5.27s4.5,0.68,5.01,0.25s0.76-4.59,0.08-5.18 C12.38,114.46,8.21,114.21,7.79,114.72z" fill="#DAEBF5"/>
  <path d="M114.63,114.89c-0.73,0.42-0.51,4.93,0.17,5.52c0.91,0.8,4.59,0.51,5.18-0.17 c0.59-0.68,0.76-4.59,0.25-5.18C119.73,114.46,115.65,114.29,114.63,114.89z" fill="#DAEBF5"/>
  <path d="M16.63,34.31c1.02,2.51,7.39,0,7.39,0s4.93-0.59,11.73,0.25s20.65,6.2,20.65,6.2 s-2.12,1.78-5.78,0.51c-3.65-1.27-5.1-3.99-6.2-3.31c-1.1,0.68-0.59,4.93,4.59,6.97s9.26,0.25,9.26,0.25l0.25,6.88 c0,0-1.44-1.02-3.31-1.1s-15.55,0.93-17.08-3.57s2.89-7.05,3.91-7.82c1.02-0.76,1.61-2.21,0.34-2.8c-1.27-0.59-9.01,1.95-9.52,8.84 s8.58,10.11,13.6,10.62s9.77,0.42,10.54,0.17c0.76-0.25,1.7-1.02,1.7-1.02s0.59,18.61,1.02,20.99c0.42,2.38,1.95,5.35,4.84,5.1 s3.57-3.74,3.82-6.03c0.25-2.29,1.53-19.29,1.53-19.29s1.02,1.19,2.29,1.19s11.81,1.02,17.42-1.53c5.61-2.55,7.73-6.71,6.8-12.07 s-7.14-7.31-8.33-6.37c-1.19,0.93,0.68,2.72,1.53,3.57c0.85,0.85,3.99,6.97-0.93,9.26c-4.93,2.29-15.21,1.19-16.4,1.44 c-1.19,0.25-2.04,1.53-2.04,1.53l0.25-7.65c0,0,7.39,1.78,11.39-1.95s3.23-5.78,1.95-6.03c-1.27-0.25-2.12,3.23-5.1,4.08 c-2.97,0.85-6.88,0.51-6.88,0.51s5.52-3.91,15.47-6.2c9.94-2.29,18.44-1.27,18.44-1.27s4.04,3.43,6.91,1.16 c2.87-2.27-1.21-6.43-4.02-6.69s-10.28-1.17-21.76,1.7c-11.9,2.97-19.04,7.65-19.04,7.65s-4.93,0.42-7.9-0.93 c-2.97-1.36-10.7-5.66-23.12-7.9c-8.92-1.61-15.89-1.44-17.68-0.76C18.11,29.28,15.18,30.74,16.63,34.31z" fill="#FEFEFE"/>
  <path d="M45.72,29.69c-0.07,1.17,1.16,2.07,2.13,2.07s2.5-1.52,5.18-1.89c2.68-0.37,3.23,0.18,3.96-0.12 c0.73-0.3,1.28-1.58,0.24-2.44c-1.04-0.85-4.57-0.79-6.46-0.37S45.78,28.66,45.72,29.69z" fill="#FDFFFE"/>
  <path d="M58.16,32.43c0.06,1.28-0.03,2.96,1.71,3.6c1.16,0.43,1.77,0,4.57-0.12c2.8-0.12,3.9,0.43,5.43-0.61 s1.28-4.45,0.3-5.24c-0.84-0.68-4.45-0.43-5.73-0.43C63.16,29.63,57.97,28.47,58.16,32.43z" fill="#FEFEFE"/>
  <path d="M58.77,22.62c-0.68,0.6-0.61,4.39,0.3,5.12c0.91,0.73,9.2,0.24,10,0.24s1.46-0.67,1.4-2.99 c-0.06-2.32-0.12-3.11-3.11-2.99C64.37,22.13,59.8,21.71,58.77,22.62z" fill="#FEFEFE"/>
  <path d="M58.89,15.79c-0.52,0.63-1.16,4.02-0.24,4.69c0.91,0.67,3.84,0.12,5.73,0.12 c1.89,0,4.63,0.61,5.67-0.49c1.04-1.1,0.55-4.39-0.43-4.88c-0.98-0.49-3.23,0.06-5.36,0.06C62.12,15.31,59.5,15.06,58.89,15.79z" fill="#FEFEFE"/>
  <path d="M72.73,28.05c0,1.1,0.49,1.52,2.07,1.52s2.93,0.06,3.78,0.55c0.85,0.49,0.98,1.22,1.89,1.28 s3.05,0,2.93-1.34c-0.12-1.34-2.62-2.56-4.69-2.93S72.73,26.34,72.73,28.05z" fill="#FDFFFE"/>
  <path d="M32.64,50.71c-1.26-0.97-3.42,1.26-4.14,2.07c-0.72,0.81-4.5,5.4-0.54,10.7s11.84,5.23,17.18,4.77 c7.2-0.63,13.67-3.69,12.68-6.93c-0.75-2.45-8.13,2.77-16.73,1.89c-7.91-0.81-10.61-2.61-10.7-6.57 C30.3,52.73,34.62,52.24,32.64,50.71z" fill="#FDFFFE"/>
  <path d="M71.05,61.5c-0.92,1.37-0.1,3.12,3.51,4.59c5.31,2.16,19.34,5.94,25.72-0.63 c6.39-6.57,0.27-15.83-2.61-15.02c-3.67,1.03,4.41,6.84-0.99,10.61c-4.37,3.06-11.33,2.25-17,1.35 C74.4,61.57,72.31,59.62,71.05,61.5z" fill="#FDFFFE"/>
  <path d="M70.69,68.16c-0.96,1.11,0.54,4.95,6.48,8.36c5.94,3.42,12.51,5.68,20.33,3.96 c8.31-1.83,8.54-12.86,4.68-13.31c-3.13-0.36,1.39,6.06-6.12,7.47c-7.2,1.35-14.39-1.89-17.09-3.24 C76.26,70.05,72.4,66.18,70.69,68.16z" fill="#FDFFFE"/>
  <path d="M70.38,74.14c-1.28,0.96-1.25,2.45-0.17,5.93c0.85,2.74,5.02,15.8,11.86,23.39 c6,6.65,9.73,6.39,9.7,4.62c-0.06-3.14-1.43-2-6.96-9.58c-4-5.49-7.36-12.49-7.36-12.49s3.33,3.12,6.67,5.48 c3.31,2.34,6.62,3.37,7.53,3.08s0.63-2.74-0.11-3.99c-0.66-1.12-2.05-1.43-4.85-3.14c-3.5-2.14-7.02-5.36-10.1-8.27 C73.51,76.25,71.52,73.29,70.38,74.14z" fill="#FDFFFE"/>
  <path d="M92.93,94.56c0.68,0.51,4.97,0.38,7.59-1.71c4.22-3.37,4.51-6.38,4.51-9.98 c0-2.4-1.03-4.16-1.88-3.82s-0.89,5.6-3.48,8.5c-2.8,3.14-5.25,1.94-6.79,2.68C91.5,90.88,92.01,93.88,92.93,94.56z" fill="#FDFFFE"/>
  <path d="M92.68,106.48c-0.42,0.48-0.2,2.53,0.42,3.38c0.6,0.82,6.47,1.28,8.88-2.35 c2.57-3.88,2.46-12.85,0.46-12.66c-1.83,0.17-0.91,7.7-3.94,9.81C95.47,106.77,93.76,105.23,92.68,106.48z" fill="#FDFFFE"/>
  <path d="M25.77,64.84c-1.71,0.29-1.79,5.55-1.03,8.9c0.86,3.76,4.73,7.81,12.55,7.47 c9.41-0.41,16.83-6.85,18.25-7.99c1.43-1.14,3.25-3.42,2.45-4.51c-0.8-1.08-2.68-0.46-5.13,0.86c-2.45,1.31-11.29,5.93-16.09,5.65 c-4.79-0.29-7.02-2-7.99-4.91C27.82,67.41,27.42,64.56,25.77,64.84z" fill="#FDFFFE"/>
  <path d="M58.06,74.71c-1.29-0.52-2.51,0.8-4.22,2.57s-7.59,7.47-11.18,9.98c-1.8,1.26-3.59,1.65-3.99,2.85 s-0.08,3.44,0.74,3.71c1.6,0.51,6.1-2.97,7.99-4.34s4.22-3.88,4.22-3.88s-2.05,7.24-7.19,13.23c-4.83,5.64-5.53,4.79-6.85,6.56 c-1.31,1.77-1.31,3.19-1.31,3.19s-0.17,2.57,1.77,1.88c1.94-0.68,6.27-2.97,10.27-8.56s6.5-10.95,8.1-15.46 C58,81.96,59.77,75.4,58.06,74.71z" fill="#FDFFFE"/>
  <path d="M26.11,78.82c-1.6-0.74-3.57,2.36-2.51,7.36c1.08,5.13,4.28,7.19,7.64,8.1 c3.9,1.06,6.1,0.91,5.99-1.6c-0.11-2.51-2.4-2.34-3.94-2.68c-1.54-0.34-4.9-1.3-5.88-4.79C26.23,80.93,27.23,79.34,26.11,78.82z" fill="#FDFFFE"/>
  <path d="M27.41,94.55c-1.04-0.09-2,1.48-2,5.02c0,4.26,1.67,8.37,4.57,10.17c2.37,1.48,4.04,1.72,5.15,1.48 c1.48-0.32,1.55-4.12,0.58-4.64s-2.99-0.03-4.96-2.32c-1.55-1.8-2.5-3.8-2.32-6.44C28.57,95.97,28.18,94.62,27.41,94.55z" fill="#FEFEFE"/>
</svg>

<svg viewBox="0 0 128 128" xmlns="http://www.w3.org/2000/svg">
  <defs>
    <radialGradient id="SVGID_1_" cx="64.804698" cy="94.799009" gradientTransform="matrix(1 -0.009434 0.006863 0.7275 0 0)" gradientUnits="userSpaceOnUse" r="75.1426">
      <stop offset="0.5911" stop-color="#7AC4D9"/>
      <stop offset="0.7747" stop-color="#4FA4C6"/>
      <stop offset="0.8506" stop-color="#3C95BD"/>
      <stop offset="1" stop-color="#327DB5"/>
    </radialGradient>
  </defs>
  <path d="M116.62,124.26 L11.32,124.26 C7.17,124.26 3.8,120.89 3.8,116.74 L3.8,11.44 C3.8,7.29 7.17,3.92 11.32,3.92 L116.62,3.92 C120.77,3.92 124.14,7.29 124.14,11.44 L124.14,116.74 C124.15,120.89 120.78,124.26 116.62,124.26 Z" fill="#95C7EC"/>
  <path d="M10.43,117.67 L10.69,9.27 L118.69,8.74 L118.3,117.54 Z" fill="#10203D"/>
  <path d="M49.7,22.01 C48.62,22.96 41.47,23.2 34.84,22.54 C28.21,21.88 21.04,22.41 17.72,24.26 C14.4,26.11 10.56,29.83 10.56,29.83 L10.16,82.5 L16.92,72.75 C16.92,72.75 16.58,83.32 18.39,98.02 C19.76,109.14 23.03,117.52 23.03,117.52 L107.68,117.52 C107.68,117.52 111.03,102.91 111.66,95.5 C112.56,84.85 111.79,75.2 111.79,75.2 L118.29,82.9 L118.56,30.76 C118.56,30.76 115.16,26.4 108.22,24.38 C99.73,21.91 88.62,22.22 83.8,22.13 C82.19,22.1 79.95,22.26 79.42,21.47 C78.89,20.68 79.02,9.26 79.02,9.26 L50.36,9.01 C50.36,9.01 50.76,21.08 49.7,22.01 Z" fill="#2865AB"/>
  <path d="M55.28,24.85 C55.28,24.85 56.21,20.84 56.36,16.36 C56.51,11.88 56.36,8.95 56.36,8.95 L72.72,8.8 C72.72,8.8 72.26,13.59 72.26,16.05 C72.26,18.51 72.57,23.3 73.19,24.23 C73.81,25.16 77.89,24.49 81.57,26.24 C85.78,28.25 87.03,32.27 87.03,32.27 L105.45,31.63 L112.34,34.76 C112.34,34.76 114.66,36.77 115.27,39.55 C115.88,42.33 116.13,46.54 116.13,46.54 L118.87,50.47 L118.25,66.83 C118.25,66.83 111.15,58.65 109.91,57.41 C108.68,56.18 107.29,53.09 105.74,56.18 C104.2,59.27 108.67,62.97 108.36,77.02 C108.05,91.07 106.35,101.1 102.19,100.17 C98.02,99.24 100.65,93.07 100.03,84.73 C99.41,76.39 97.87,64.36 92.47,52.78 C87.07,41.2 76.27,37.2 73.8,37.82 C71.33,38.44 72.26,56.34 72.57,62.83 C72.88,69.31 75.5,77.8 79.67,83.67 C83.84,89.54 89.09,90.62 90.63,96.79 C92.17,102.96 90.48,105.9 90.48,105.9 C90.48,105.9 96.19,106.05 98.97,108.83 C101.75,111.61 103.76,117.78 103.76,117.78 L25.8,117.78 C25.8,117.78 26.11,108.98 33.36,104.04 C40.61,99.1 46.48,99.87 46.48,99.87 L50.65,94.47 L56.05,76.1 C56.05,76.1 56.36,58.97 56.36,53.1 C56.36,47.23 56.67,40.44 56.21,39.36 C55.75,38.28 50.81,36.58 50.81,36.58 C50.81,36.58 40.78,41.06 36.3,50.78 C31.82,60.5 30.28,72.54 29.66,83.81 C29.04,95.08 30.43,101.56 27.5,101.1 C24.57,100.64 19.94,91.38 20.09,75.01 C20.24,58.65 23.49,54.33 21.63,53.4 C19.78,52.47 17.54,55.84 14.22,60.04 C11.9,62.97 10.36,64.52 10.36,64.52 L10.36,47.23 C10.36,47.23 12.98,44.91 13.14,42.75 C13.3,40.59 13.45,36.11 17.93,33.64 C22.41,31.17 41.08,31.94 41.08,31.94 C41.08,31.94 42.78,28.54 47.41,26.23 C52.04,23.92 55.28,24.85 55.28,24.85 Z" fill="url(#SVGID_1_)"/>
  <path d="M58.2,9 C58.2,9 57.96,13.33 58.97,13.9 C59.98,14.48 61.71,14.09 64.74,14.09 C67.77,14.09 68.97,14.52 69.88,13.85 C70.79,13.18 70.22,8.61 70.22,8.61 L58.2,9 Z" fill="#FCFDFD"/>
  <path d="M9.56,8.25 L9.37,118.85 L119.23,119 L119.63,7.81 L9.56,8.25 Z M11.36,116.88 L11.22,10.2 L117.36,9.67 L117.49,116.61 L11.36,116.88 Z" fill="#004CA5"/>
  <path d="M114.8,6.94 C114.21,7.96 114.38,11.7 115.14,12.21 C115.9,12.72 119.64,12.29 120.24,11.79 C120.83,11.28 120.49,7.2 119.82,6.61 C119.14,6.01 115.23,6.21 114.8,6.94 Z" fill="#DAEBF5"/>
  <path d="M7.96,7.62 C6.81,8.77 7.28,12.21 8.04,12.8 C8.8,13.39 12.46,13.48 13.31,12.72 C14.16,11.96 14.07,8.13 13.06,7.28 C12.05,6.43 8.98,6.6 7.96,7.62 Z" fill="#DAEBF5"/>
  <path d="M7.79,114.72 C7.2,115.43 7.2,119.31 7.96,119.99 C8.72,120.67 12.46,120.67 12.97,120.24 C13.48,119.81 13.73,115.65 13.05,115.06 C12.38,114.46 8.21,114.21 7.79,114.72 Z" fill="#DAEBF5"/>
  <path d="M114.63,114.89 C113.9,115.31 114.12,119.82 114.8,120.41 C115.71,121.21 119.39,120.92 119.98,120.24 C120.57,119.56 120.74,115.65 120.23,115.06 C119.73,114.46 115.65,114.29 114.63,114.89 Z" fill="#DAEBF5"/>
  <path d="M16.63,34.31 C17.65,36.82 24.02,34.31 24.02,34.31 C24.02,34.31 28.95,33.72 35.75,34.56 C42.55,35.4 56.4,40.76 56.4,40.76 C56.4,40.76 54.28,42.54 50.62,41.27 C46.97,40 45.52,37.28 44.42,37.96 C43.32,38.64 43.83,42.89 49.01,44.93 C54.19,46.97 58.27,45.18 58.27,45.18 L58.52,52.06 C58.52,52.06 57.08,51.04 55.21,50.96 C53.34,50.88 39.66,51.89 38.13,47.39 C36.6,42.89 41.02,40.34 42.04,39.57 C43.06,38.81 43.65,37.36 42.38,36.77 C41.11,36.18 33.37,38.72 32.86,45.61 C32.35,52.5 41.44,55.72 46.46,56.23 C51.48,56.74 56.23,56.65 57,56.4 C57.76,56.15 58.7,55.38 58.7,55.38 C58.7,55.38 59.29,73.99 59.72,76.37 C60.14,78.75 61.67,81.72 64.56,81.47 C67.45,81.22 68.13,77.73 68.38,75.44 C68.63,73.15 69.91,56.15 69.91,56.15 C69.91,56.15 70.93,57.34 72.2,57.34 C73.47,57.34 84.01,58.36 89.62,55.81 C95.23,53.26 97.35,49.1 96.42,43.74 C95.49,38.38 89.28,36.43 88.09,37.37 C86.9,38.3 88.77,40.09 89.62,40.94 C90.47,41.79 93.61,47.91 88.69,50.2 C83.76,52.49 73.48,51.39 72.29,51.64 C71.1,51.89 70.25,53.17 70.25,53.17 L70.5,45.52 C70.5,45.52 77.89,47.3 81.89,43.57 C85.89,39.84 85.12,37.79 83.84,37.54 C82.57,37.29 81.72,40.77 78.74,41.62 C75.77,42.47 71.86,42.13 71.86,42.13 C71.86,42.13 77.38,38.22 87.33,35.93 C97.27,33.64 105.77,34.66 105.77,34.66 C105.77,34.66 109.81,38.09 112.68,35.82 C115.55,33.55 111.47,29.39 108.66,29.13 C105.85,28.87 98.38,27.96 86.9,30.83 C75,33.8 67.86,38.48 67.86,38.48 C67.86,38.48 62.93,38.9 59.96,37.55 C56.99,36.19 49.26,31.89 36.84,29.65 C27.92,28.04 20.95,28.21 19.16,28.89 C18.11,29.28 15.18,30.74 16.63,34.31 Z" fill="#FEFEFE"/>
  <path d="M45.72,29.69 C45.65,30.86 46.88,31.76 47.85,31.76 C48.82,31.76 50.35,30.24 53.03,29.87 C55.71,29.5 56.26,30.05 56.99,29.75 C57.72,29.45 58.27,28.17 57.23,27.31 C56.19,26.46 52.66,26.52 50.77,26.94 C48.88,27.36 45.78,28.66 45.72,29.69 Z" fill="#FDFFFE"/>
  <path d="M58.16,32.43 C58.22,33.71 58.13,35.39 59.87,36.03 C61.03,36.46 61.64,36.03 64.44,35.91 C67.24,35.79 68.34,36.34 69.87,35.3 C71.4,34.26 71.15,30.85 70.17,30.06 C69.33,29.38 65.72,29.63 64.44,29.63 C63.16,29.63 57.97,28.47 58.16,32.43 Z" fill="#FEFEFE"/>
  <path d="M58.77,22.62 C58.09,23.22 58.16,27.01 59.07,27.74 C59.98,28.47 68.27,27.98 69.07,27.98 C69.87,27.98 70.53,27.31 70.47,24.99 C70.41,22.67 70.35,21.88 67.36,22 C64.37,22.13 59.8,21.71 58.77,22.62 Z" fill="#FEFEFE"/>
  <path d="M58.89,15.79 C58.37,16.42 57.73,19.81 58.65,20.48 C59.56,21.15 62.49,20.6 64.38,20.6 C66.27,20.6 69.01,21.21 70.05,20.11 C71.09,19.01 70.6,15.72 69.62,15.23 C68.64,14.74 66.39,15.29 64.26,15.29 C62.12,15.31 59.5,15.06 58.89,15.79 Z" fill="#FEFEFE"/>
  <path d="M72.73,28.05 C72.73,29.15 73.22,29.57 74.8,29.57 C76.38,29.57 77.73,29.63 78.58,30.12 C79.43,30.61 79.56,31.34 80.47,31.4 C81.38,31.46 83.52,31.4 83.4,30.06 C83.28,28.72 80.78,27.5 78.71,27.13 C76.64,26.76 72.73,26.34 72.73,28.05 Z" fill="#FDFFFE"/>
  <path d="M32.64,50.71 C31.38,49.74 29.22,51.97 28.5,52.78 C27.78,53.59 24,58.18 27.96,63.48 C31.92,68.78 39.8,68.71 45.14,68.25 C52.34,67.62 58.81,64.56 57.82,61.32 C57.07,58.87 49.69,64.09 41.09,63.21 C33.18,62.4 30.48,60.6 30.39,56.64 C30.3,52.73 34.62,52.24 32.64,50.71 Z" fill="#FDFFFE"/>
  <path d="M71.05,61.5 C70.13,62.87 70.95,64.62 74.56,66.09 C79.87,68.25 93.9,72.03 100.28,65.46 C106.67,58.89 100.55,49.63 97.67,50.44 C94,51.47 102.08,57.28 96.68,61.05 C92.31,64.11 85.35,63.3 79.68,62.4 C74.4,61.57 72.31,59.62 71.05,61.5 Z" fill="#FDFFFE"/>
  <path d="M70.69,68.16 C69.73,69.27 71.23,73.11 77.17,76.52 C83.11,79.94 89.68,82.2 97.5,80.48 C105.81,78.65 106.04,67.62 102.18,67.17 C99.05,66.81 103.57,73.23 96.06,74.64 C88.86,75.99 81.67,72.75 78.97,71.4 C76.26,70.05 72.4,66.18 70.69,68.16 Z" fill="#FDFFFE"/>
  <path d="M70.38,74.14 C69.1,75.1 69.13,76.59 70.21,80.07 C71.06,82.81 75.23,95.87 82.07,103.46 C88.07,110.11 91.8,109.85 91.77,108.08 C91.71,104.94 90.34,106.08 84.81,98.5 C80.81,93.01 77.45,86.01 77.45,86.01 C77.45,86.01 80.78,89.13 84.12,91.49 C87.43,93.83 90.74,94.86 91.65,94.57 C92.56,94.28 92.28,91.83 91.54,90.58 C90.88,89.46 89.49,89.15 86.69,87.44 C83.19,85.3 79.67,82.08 76.59,79.17 C73.51,76.25 71.52,73.29 70.38,74.14 Z" fill="#FDFFFE"/>
  <path d="M92.93,94.56 C93.61,95.07 97.9,94.94 100.52,92.85 C104.74,89.48 105.03,86.47 105.03,82.87 C105.03,80.47 104,78.71 103.15,79.05 C102.3,79.39 102.26,84.65 99.67,87.55 C96.87,90.69 94.42,89.49 92.88,90.23 C91.5,90.88 92.01,93.88 92.93,94.56 Z" fill="#FDFFFE"/>
  <path d="M92.68,106.48 C92.26,106.96 92.48,109.01 93.1,109.86 C93.7,110.68 99.57,111.14 101.98,107.51 C104.55,103.63 104.44,94.66 102.44,94.85 C100.61,95.02 101.53,102.55 98.5,104.66 C95.47,106.77 93.76,105.23 92.68,106.48 Z" fill="#FDFFFE"/>
  <path d="M25.77,64.84 C24.06,65.13 23.98,70.39 24.74,73.74 C25.6,77.5 29.47,81.55 37.29,81.21 C46.7,80.8 54.12,74.36 55.54,73.22 C56.97,72.08 58.79,69.8 57.99,68.71 C57.19,67.63 55.31,68.25 52.86,69.57 C50.41,70.88 41.57,75.5 36.77,75.22 C31.98,74.93 29.75,73.22 28.78,70.31 C27.82,67.41 27.42,64.56 25.77,64.84 Z" fill="#FDFFFE"/>
  <path d="M58.06,74.71 C56.77,74.19 55.55,75.51 53.84,77.28 C52.13,79.05 46.25,84.75 42.66,87.26 C40.86,88.52 39.07,88.91 38.67,90.11 C38.27,91.31 38.59,93.55 39.41,93.82 C41.01,94.33 45.51,90.85 47.4,89.48 C49.29,88.11 51.62,85.6 51.62,85.6 C51.62,85.6 49.57,92.84 44.43,98.83 C39.6,104.47 38.9,103.62 37.58,105.39 C36.27,107.16 36.27,108.58 36.27,108.58 C36.27,108.58 36.1,111.15 38.04,110.46 C39.98,109.78 44.31,107.49 48.31,101.9 C52.31,96.31 54.81,90.95 56.41,86.44 C58,81.96 59.77,75.4 58.06,74.71 Z" fill="#FDFFFE"/>
  <path d="M26.11,78.82 C24.51,78.08 22.54,81.18 23.6,86.18 C24.68,91.31 27.88,93.37 31.24,94.28 C35.14,95.34 37.34,95.19 37.23,92.68 C37.12,90.17 34.83,90.34 33.29,90 C31.75,89.66 28.39,88.7 27.41,85.21 C26.23,80.93 27.23,79.34 26.11,78.82 Z" fill="#FDFFFE"/>
  <path d="M27.41,94.55 C26.37,94.46 25.41,96.03 25.41,99.57 C25.41,103.83 27.08,107.94 29.98,109.74 C32.35,111.22 34.02,111.46 35.13,111.22 C36.61,110.9 36.68,107.1 35.71,106.58 C34.74,106.06 32.72,106.55 30.75,104.26 C29.2,102.46 28.25,100.46 28.43,97.82 C28.57,95.97 28.18,94.62 27.41,94.55 Z" fill="#FEFEFE"/>
</svg>
